X:1
T:Menuet
T:Carl Christiansson
%%score { 1 | 2 }
L:1/8
M:3/4
K:G
V:1 treble nm="Piano"
V:2 bass 
V:1
 D2 |!<(! BA GA Bc!<)! | d2 DF Ad | ed cd ef | gd BD G2 | cd ec BA | Bc dB AG | AB/c/ d2 D2 | %8
 G4 D2 | BA GA Bc | d2 DF Ad | ed cd ef | gd BD G2 | cd ec BA | Bc dB AG | AB/c/ d2 D2 | G4 F2 | %17
 d^c Bc dB | ^cB AB cf | ge ^cg fe | dB F^c d2 | d/^c/B/d/ c/^A/B/c/ d2 | d/^c/B/d/ c/^A/B/c/ d2 | %23
 d^c BF D^C | B,4 d2 | BA GA Bc | d2 DF Ad | ed cd ef | gd BD G2 | cd ec BA | Bc dB AG | %31
 AB/c/ d2 E2 | G6 |] %33
V:2
"^D" D,2 |"^G" G,,G,"^D" D,2"^G" G,,2 |"^Fis" F,,2"^D" D,2"^A" A,2 | %3
"^G" G,"^C"C,"^E" E,"^G"G,,"^C" C,,2 |"^G" G,,2 G,,2 G,,2 |"^A" A,,2"^C" C,2"^D" D,2 | %6
"^H" B,,2"^G" G,,"^H"B,,"^E" E,2 |"^C" C,2"^D" D,2 D,2 |"^G" G,,2"^H\nD" [D,B,]2 z2 | %9
"^G" G,,G,"^D" D,2"^G" G,,2 |"^Fis" F,,2"^D" D,2"^A" A,2 |"^G" G,"^C"C,"^E" E,"^G"G,,"^C" C,,2 | %12
"^G" G,,2 G,,"^D"D,,"^G" G,,2 |"^A" A,,2"^C" C,2"^D" D,2 |"^H" B,,2"^G" G,,"^H"B,,"^E" E,2 | %15
"^C" C,2"^D" D,2 D,2 |"^G" G,,2"^H\nD" [D,B,]2 z2 |"^H" B,,,2"^D\nH\nFis" [F,B,D]2 [F,B,D]2 | %18
"^Fis" F,,2"^A\nFis\nCis" [^C,F,A,]2 [C,F,A,]2 |"^E" E,,2"^Cis\nH\nG\n" [G,B,^C]2 [G,B,C]2 | %20
"^H" B,,2"^D\nH\nFis" [F,B,D]2 [F,B,D]2 |"^G" G,,2"^D\nH\nG" [G,B,D]2"^D" D,2 | %22
"^E" E,,2"^D\nH\nG" [G,B,D]2"^H" B,,2 | %23
"^Fis" F,,2"^D\nH\nFis" [F,B,D]2"^Cis\nAis\nFis\n" [F,^A,^C]2 |"^H" B,,,2"^D\nH\nFis" [F,B,D]4 | %25
"^G" G,,G,"^D" D,2"^G" G,,2 |"^Fis" F,,2"^D" D,2"^A" A,2 |"^G" G,"^C"C,"^E" E,"^G"G,,"^C" C,,2 | %28
"^G" G,,2 G,,2 G,,2 |"^A" A,,2"^C" C,2"^D" D,2 |"^H" B,,2"^G" G,,"^H"B,,"^E" E,2 | %31
"^C" C,2"^D" D,4 |"^G" G,,2 G,,,4 |] %33

